!!!!SEGMENT: pl-kc--40102-iii-1-saf--001-025_zielenski-mikolaj--offertoria-totius-anni-in-festo-sanctissime-trinitatis-benedictus-sit-deus.krn
!!!cenid: 16xx:1503
!!!COM: Zieleński, Mikołaj
!!!COM-rismid: pe30013481
!!!CDT: <1611->1611
!!!CNT: Polish
!!!GTL: Offertoria totius anni
!!!OTL: In festo Sanctissime Trinitatis/Benedictus sit Deus
!!!OMV: 025
!!!PDT: 1611
!!!AGN:
!!!SMS-siglum: PL-Kc
!!!SMS-shelfmark: 40102 III/1 Saf.
!!!SMS-shelfwork: 001-025 G
!!!SMS-variant:
!!!SMS-altvar:
!!!NIFC-rismid: 990069886
!!!URL-scan: https://cyfrowe.mnk.pl/dlibra/publication/24235/edition/23926/content?ref=desc
!!!ONB-nifc: UWAGA: str. 23. Uwaga: W xml metrum 2/1 do źródłowego C| i odpowiednio 3/1 do 3/2
!!!AIN: 4 organ
!!!key:
**kern	**kern	**kern	**kern
*group1	*group1	*group1	*group1
*part4	*part3	*part2	*part1
*staff4	*staff3	*staff2	*staff1
*I""Organo	*I""Organo	*I""Organo	*I""Organo
*I''org	*I''org	*I''org	*I''org
*Iorgan	*Iorgan	*Iorgan	*Iorgan
*ICklav	*ICklav	*ICklav	*ICklav
*clefF5	*clefC1	*clefF3	*clefC1
*k[b-]	*k[b-]	*k[b-]	*k[b-]
*F:	*F:	*F:	*F:
*M2/1	*M2/1	*M2/1	*M2/1
*met(C|)	*met(C|)	*met(C|)	*met(C|)
=1	=1	=1	=1
!	!	!LO:TX:b:t=Benedićtus ſit Deus.	!LO:TX:a:t=In feſto Sanćtisſimae Trinitatis A 8.
00r	00r	1.F	1.cc
.	.	2G\	2b-\
=2-	=2-	=2-	=2-
.	.	2.A\	1a
.	.	4B-\	.
.	.	2c\	2g/
.	.	4B-\	2cc\
.	.	4A\	.
=3	=3	=3	=3
00r	00r	2B-\	4b-\
.	.	.	4a\
.	.	2F/	4a\
.	.	.	8g/
.	.	.	8f/
.	.	1c	4g/
.	.	.	4e/
.	.	.	2a\
=4-	=4-	=4-	=4-
.	.	1C	2g/
.	.	.	2g\
.	.	1F	1a
=5	=5	=5	=5
1r	1r	1BB-	1b-
1.FF	1.cc	1F	1a
=6-	=6-	=6-	=6-
.	.	0r	0r
2GG/	2b-\	.	.
2.AA/	1a	.	.
4BB-/	.	.	.
=7	=7	=7	=7
2C\	2g/	00r	00r
2AA/	2a\	.	.
1D	4b-\	.	.
.	4a\	.	.
.	2.a\	.	.
=8-	=8-	=8-	=8-
1GG	.	.	.
!	!LO:SIC:v:s=8gn/	!	!
.	8g#X/	.	.
.	8f/	.	.
.	2gny/	.	.
1D	1a	.	.
=9	=9	=9	=9
1BB-	1dd	0r	0r
1FF	1cc	.	.
=10-	=10-	=10-	=10-
1r	1r	1r	1r
[1FF	1cc	[y1C	[y1ff
=11	=11	=11	=11
!LO:N:xstem:cue:vis=4	!	!LO:N:xstem:cue:vis=4	!LO:N:xstem:cue:vis=4
2FF/]	2cc\	2C/]	2ff\]
2CC/	2.cc\	2C/	2ee\
1GG	.	1D	1dd
!	!LO:N:acc=#	!	!
.	8bn\	.	.
.	8a\	.	.
.	2b\	.	.
=12-	=12-	=12-	=12-
2CC/	2cc\	2C/	2ee\
2FF/	2cc\	2AA/	2cc\
1BB-	1b-y	1BB-	1dd
=13	=13	=13	=13
1FF	1a	1C	2cc\
.	.	.	1ff
0CC	0cc	0C	.
.	.	.	4ee\
.	.	.	4dd\
=14-	=14-	=14-	=14-
.	.	.	1ee
1GG	1b-	1D	1dd
*custos:DD	*custos:a	*custos:D	*custos:dd
!!LO:LB:g=original
=15	=15	=15	=15
0DD	0a	0D	0dd
=16-	=16-	=16-	=16-
!	!LO:N:acc=#	!	!
1GG	1bn	1D	1dd
1CC	1cc	1C	1ee
=17	=17	=17	=17
1FF	1cc	2C/	2ff\
.	.	1F	1cc
1r	1r	.	.
.	.	2A\	2cc\
=18-	=18-	=18-	=18-
0r	0r	2.B-\	2.dd\
.	.	4B-\	4dd\
.	.	2B-\	2dd\
.	.	2F/	2cc\
=19	=19	=19	=19
00r	00r	2.G\	1b-
.	.	4F/	.
.	.	2.E-X/	2g/
*	*	*	*lig
.	.	.	1ee-X
.	.	4D/	.
=20-	=20-	=20-	=20-
.	.	2C/	.
!	!	!LO:N:acc=#	!
.	.	2BBn/	1dd
.	.	[y1C	.
*	*	*	*Xlig
.	.	.	4cc\
!	!	!	!LO:N:acc=#
.	.	.	4bn\
=21	=21	=21	=21
!	!	!LO:N:xstem:cue:vis=4	!
00r	00r	2C/]	2cc\
.	.	2C/	2cc\
.	.	2AA/	1dd
.	.	1G	.
=22-	=22-	=22-	=22-
.	.	.	2r
.	.	1D	1ff
.	.	[<2F/	[<2cc\
=23	=23	=23	=23
00r	00r	2F/]	2cc\]
.	.	2C/	1ee-X
.	.	2.E-X/	.
.	.	.	2b-\
.	.	8D/	.
.	.	8C/	.
=24-	=24-	=24-	=24-
.	.	4BB-/	1dd
.	.	4C/	.
.	.	4D/	.
.	.	4BB-/	.
.	.	2F/	2cc\
.	.	2C/	[y2ee-X\
=25	=25	=25	=25
!	!	!	!LO:N:xstem:cue
0r	0r	2.E-X/	4ee-\]
.	.	.	4dd\
.	.	.	2.cc\
.	.	4F/	.
.	.	2G\	.
!	!	!	!LO:N:acc=#
.	.	.	8bn\
.	.	.	8a\
.	.	2GG/	2b\
=26-	=26-	=26-	=26-
2r	2r	0C	0cc
1CC	1cc	.	.
2EE/	2g/	.	.
=27	=27	=27	=27
2.FF/	2.a\	00r	00r
4FF/	4a\	.	.
2FF/	2a\	.	.
2GG/	4g/	.	.
.	4f/	.	.
=28-	=28-	=28-	=28-
2.AA/	4e/	.	.
.	4c/	.	.
.	2f/	.	.
4BB-/	.	.	.
2C\	2e/	.	.
2GG/	[<2g/	.	.
=29	=29	=29	=29
1.DD	2g/]	0r	0r
.	4f/	.	.
.	4e/	.	.
.	2f/	.	.
2DD/	2f/	.	.
=30-	=30-	=30-	=30-
1GG	1g	2r	2r
.	.	1G	1dd
2r	2r	.	.
[>2CC/	[>2cc\	2E/	2ee\
=31	=31	=31	=31
2CC/]	2cc\]	2E/	2.cc\
2FF/	2a\	2C/	.
.	.	.	4cc\
2.DD/	2.a\	1.F	2dd\
.	.	.	2dd\
4DD/	4a\	.	.
=32-	=32-	=32-	=32-
2DD/	2dd\	.	1ff
2DD/	2dd\	2D/	.
2.AA/	[y1cc	[y1E	2ee\
.	.	.	[y2ee\
4BB-/	.	.	.
=33	=33	=33	=33
!	!LO:N:xstem:cue:vis=4	!LO:N:xstem:cue:vis=4	!LO:N:xstem:cue
2C\	2cc\]	2E/]	4ee\]
.	.	.	4dd\
2CC/	2cc\	2E/	1cc
1.GG	1.g	1.D	.
!	!	!	!LO:N:acc=#
.	.	.	4bn\
.	.	.	4a\
=34-	=34-	=34-	=34-
.	.	.	2bny\
2GG/	2g/	2D/	2b\
1CC	1g	2C/	2cc\
.	.	[<2C/	[<2ee\
=35	=35	=35	=35
00r	00r	2C/]	2ee\]
.	.	2G\	2dd\
.	.	4D/	1ff
.	.	4E/	.
.	.	4F/	.
.	.	4D/	.
=36-	=36-	=36-	=36-
.	.	2A\	2ee\
.	.	1c	1ee
.	.	2B-\	2dd\
=37	=37	=37	=37
0r	0r	1.A	2cc#X\
.	.	.	2.dd\
.	.	.	8cc#X\
!	!	!	!LO:SIC:v:s=8bn\
.	.	.	8b-\
.	.	2AA/	2cc#\
=38-	=38-	=38-	=38-
2r	2r	0D	0dd
1DD	1a	.	.
2DD/	2f/	.	.
=39	=39	=39	=39
1AA	1e	00r	00r
1DD	2f#X/	.	.
.	1a	.	.
=40-	=40-	=40-	=40-
2.FF/	.	.	.
.	2cc\	.	.
4GG/	.	.	.
4AA/	2cc\	.	.
4BB-/	.	.	.
2C\	[<2g/	.	.
=41	=41	=41	=41
2GG/	2g/]	00r	00r
1GG	2.b-\	.	.
.	4a\	.	.
2GG/	2.g/	.	.
=42-	=42-	=42-	=42-
2.AA/	.	.	.
.	4f/	.	.
.	2.f/	.	.
4BB-/	.	.	.
2C\	.	.	.
.	8e/	.	.
.	8d/	.	.
2CC/	2e/	.	.
*custos:FF	*custos:f	*custos:F	*custos:ff
!!LO:LB:g=original
=43	=43	=43	=43
1FF	1f	2r	2r
.	.	1F	1ff
2r	2r	.	.
1FF	1a	2F/	2cc\
=44-	=44-	=44-	=44-
.	.	2r	2r
2CC/	2g/	1c	1ee-X
2r	2r	.	.
[>2GG/	[>2b-\	2G\	2dd\
=45	=45	=45	=45
2GG/]	2b-\]	2r	2r
2DD/	2a\	1D	1dd
2r	2r	.	.
1AA	1a	1E	1cc
=46-	=46-	=46-	=46-
.	.	.	.
2BB-/	2f/	2D/	2b-\
2FF/	1cc	1C	2a\
2FF/	.	.	4ff\
.	.	.	4ee\
=47	=47	=47	=47
2.GG/	2b-\	2r	4dd\
.	.	.	4cc\
.	2dd\	1BB-	4b-\
4FF/	.	.	4a\
2EE-X/	1ee-X	.	4b-\
.	.	.	4g/
4DD/	.	2C/	1cc
4CC/	.	.	.
=48-	=48-	=48-	=48-
1.GG	1.dd	1.D	.
!	!	!	!LO:N:acc=#
.	.	.	4bn\
.	.	.	4a\
.	.	.	2b\
2GG/	2dd\	2GG/	2b\
=49	=49	=49	=49
*M3/2	*M3/2	*M3/2	*M3/2
0.CC	0.cc	0.C	0.cc
=50-	=50-	=50-	=50-
0.r	0.r	0c	0cc
.	.	1G	1b-
=51-	=51-	=51-	=51-
00.r	00.r	0A	0a
.	.	1F	1a
=52-	=52-	=52-	=52-
.	.	0G	0g
.	.	1GG	1g
=53	=53	=53	=53
0C	0cc	0.C	0.g
1GG	1b-	.	.
=54-	=54-	=54-	=54-
0D	0a	00.r	00.r
1AA	1cc	.	.
=55-	=55-	=55-	=55-
0BB-	0b-	.	.
1C	1g	.	.
=56-	=56-	=56-	=56-
0FF	0a	0F	0ff
1r	1r	1C	1ee-X
=57	=57	=57	=57
00.r	00.r	0G	0dd
.	.	1D	1ff
=58-	=58-	=58-	=58-
.	.	0E-X	0ee-X
.	.	1F	1cc
=59-	=59-	=59-	=59-
0.r	0.r	0.BB-	0.dd
=60-	=60-	=60-	=60-
0BB-	0dd	0F	0ff
1FF	1cc	1F	1ff
=61	=61	=61	=61
0GG	1.b-	0BB-	0dd
.	2g/	.	.
1CC	1cc	1C	1ee-X
=62-	=62-	=62-	=62-
0GG	1.cc	0D	0dd
!	!LO:N:acc=#	!	!
.	4bn\	.	.
.	4a\	.	.
1GG	1b	1D	1dd
=63-	=63-	=63-	=63-
0.CC	0.cc	0.C	0.eeny
=64-	=64-	=64-	=64-
0.r	0.r	1F	1cc
.	.	1F	1cc
.	.	1F	1cc
=65	=65	=65	=65
1FF	1cc	1.F	1.ff
1FF	1cc	.	.
.	.	2F/	2ff\
1FF	1cc	1F	1ff
=66-	=66-	=66-	=66-
1.BB-	1.b-	1F	1dd
.	.	1F	1dd
2BB-/	2b-\	.	.
!	!LO:N:acc=#	!	!
1BB-	1bn	1F	1dd
=67-	=67-	=67-	=67-
1GG	1bny	1.G	1.ee
1GG	1b	.	.
.	.	2G\	2ee\
1GG	1b	1GG	1ee
=68-	=68-	=68-	=68-
1.CC	1.cc	1C	1cc
.	.	1C	1cc
2CC/	2cc\	.	.
1CC	1cc	1C	1cc
=69	=69	=69	=69
1FF	1cc	1.C	1.ff
1FF	1cc	.	.
.	.	2C/	2ff\
1FF	1a	1C	1cc
=70-	=70-	=70-	=70-
1.BB-	1.b-	2BB-/	0dd
.	.	2C/	.
.	.	2D/	.
2BB-/	2b-\	2BB-/	.
1BB-	1b-	1F	1dd
=71-	=71-	=71-	=71-
1FF	1a	1F	1cc
1FF	1a	1F	1cc
1FF	1cc	1C	1ff
=72-	=72-	=72-	=72-
*col	*col	*col	*
0C	0cc	0C	1.ee
.	.	.	2ee\
1AA	1cc	1C	1cc
=73	=73	=73	=73
1FF	1cc	1C	0ff
0CC	0cc	0C	.
.	.	.	1ee
*Xcol	*Xcol	*Xcol	*
=74	=74	=74	=74
*M2/1	*M2/1	*M2/1	*M2/1
*met(C|)	*met(C|)	*met(C|)	*met(C|)
2FF/	2cc\	2C/	1ff
1F	1a	2r	.
.	.	2r	2r
2D\	2a\	1F	1ff
=75-	=75-	=75-	=75-
2D\	2a\	.	.
2BB-/	2b-\	2F/	2dd\
=	=	=	=
*lig	*	*	*
1F	1.f	2F/	2dd\
.	.	2F/	2cc\
=76-	=76-	=76-	=76-
*col	*	*	*
2.BB-/	.	2F/	2.b-\
.	2f/	2BB-/	.
*Xlig	*	*	*
4BB-/	.	.	4b-\
*Xcol	*	*	*
1FF	1f	2.C/	2a\
.	.	.	2cc\
.	.	4C/	.
=77-	=77-	=77-	=77-
2r	2r	2C/	2cc\
2CC/	2g/	2C/	2cc\
*custos:CC	*custos:cc	*custos:C	*custos:ee
=	=	=	=
!!LO:PB:g=original
2CC/	2cc\	2.C/	2.ee-X\
2CC/	2cc\	.	.
.	.	4C/	4ee-\
=78-	=78-	=78-	=78-
2.GG/	2.b-\	1D	1dd
4GG/	4b-\	.	.
2GG/	2b-\	2r	2r
2BB-/	2b-\	2BB-/	2dd\
=79-	=79-	=79-	=79-
2BB-/	2b-\	2BB-/	2dd\
2BB-/	2b-\	2BB-/	2dd\
=	=	=	=
2.FF/	1a	2.C/	2.cc\
4FF/	.	4C/	4cc\
=80-	=80-	=80-	=80-
1CC	2g/	1C	2cc\
.	2.cc\	.	4b-\
.	.	.	4a\
0CC	.	1C	4g/
.	4b-\	.	4c/
.	2a\	.	2cc\
=81-	=81-	=81-	=81-
.	1g	0Cl	1cc
1FFl	1al	.	1ccl
==	==	==	==
*-	*-	*-	*-
!!!system-decoration: *
!!!RDF**kern: > = above
!!!RDF**kern: < = below
!!!RDF**kern: l = terminal long
!!!ENC: Filip Voros
!!!END: 2021-12-13
!!!ENC: Andrzej Kubiczek
!!!END: 2021-12-20
